X:1
T:The Fly Fishing
R:reel
M:4/4
L:1/8
K:A
cB|:AGEC D2CD|EA,A,B, CDEC|DECE D2CD|EAAc ~B2cB|
|AGEC D2CD|EA,A,B, CDEC|DECE D2CD|EAAG ~A2AB:|
|:~c2ec Acec|=Gcec ~F2FE|DEFA dAFA|GBef edcB|
|~c2ec Acec|=Gcec ~F2FE|DEFA dAFA|GBAG ~A2AB:|